X: 270
P: Longways for as many as will
M: 6/4
L: 1/8
K: F
f2 |\
f3ga2 g4f2 | e3dc2 f4d2 | c2f2c2 A3GF2 | G6 B4c2 |\
f2fga2 g2(fe) (dc) | f4e2 d2c2A2 | (cd) (cA) (GF) F3GF2 | A6 F2 |]

